X:1
T:Title
%%score { ( 1 4 ) | ( 2 3 ) }
L:1/8
M:4/4
K:Eb
V:1 treble nm="Grand Piano"
V:4 treble 
V:2 bass 
V:3 bass 
V:1
 z4 z2[Q:1/4=104] [EG][FA] | [GB]3 [GB] [GB]2 G2 | A2 A2 A2 [B,DF]2 | %3
 [B,EG]3 [B,EG] [B,EG]2 [B,E]2 |[M:3/4] [B,DF]6 |[M:1/4] [B,FA]2 | %6
[M:4/4] [B,EG]3 [B,FA] [EGB]2 [B,EG]2 | [B,EG]2 [A,DF]2 [G,E]2 [G,CE]2 | %8
 [CF]3 [B,=EG] .[CFA]2 .[B,D]2 | [G,B,E]6 z2 | B8 | A4 F4 | E4 F4 |[M:3/4] G6 |[M:1/4] [GB]2 | %15
[M:4/4] [Ge]3 [Ge] [Bd]2 [Ac]2 | [GB]4 [EG]2 [GB]2 | [FA]3 [=EG] [FA]2 [A,DF]2 | %18
[M:3/4][K:bass] [E,E]2- [E,-CE-]2 [E,B,E]2 |] %19
V:2
 z4 z2 [E,B,]2 | [E,E]3 [E,E] [E,E]2 [E,B,E]2 | [F,B,D]2 [F,B,D]2 [F,B,D]2 B,,2 | E,3 E, E,2 G,,2 | %4
[M:3/4] B,,6 |[M:1/4] D,2 |[M:4/4] E,3 E, E,2 E,2 | E,2 B,,2 C,2 C,2 | [A,,A,]3 [G,,G,] z D z A, | %9
 E,,6 z2 | [E,G,E]2 [B,,F,]2 [E,G,]2 [E,G,][E,G,] | [F,B,D]2 [B,,B,]2 [D,B,D]2 [B,,A,]2 | %12
 [C,G,]2 [C,G,]2 [B,,B,]2 [B,,B,]2 |[M:3/4] [E,B,E]2 [E,B,]2 [E,B,]2 |[M:1/4] [E,B,]2 | %15
[M:4/4] [E,B,]3 [E,B,] [E,B,]2 [E,E]2 | [E,E]4 [E,B,]2 [E,B,]2 | [B,,B,]3 [B,,B,] [B,,B,]2 B,,2 | %18
[M:3/4] z2 A,2 G,2 |] %19
V:3
 x8 | x8 | x8 | x8 |[M:3/4] x6 |[M:1/4] x2 |[M:4/4] x8 | x8 | z4 [F,,F,]2 B,,2 | x8 | x8 | x8 | %12
 x8 |[M:3/4] x6 |[M:1/4] x2 |[M:4/4] x8 | x8 | x8 |[M:3/4] E,,6 |] %19
V:4
 x8 | x8 | x8 | x8 |[M:3/4] x6 |[M:1/4] x2 |[M:4/4] x8 | x8 | x8 | x8 | z2 D2 E2 EE | z2 D2 z2 D2 | %12
 z2 C2 D2 D2 |[M:3/4] z2 E2 E2 |[M:1/4] x2 |[M:4/4] x8 | x8 | x8 |[M:3/4][K:bass] G,2 z2 z2 |] %19

